Breeze Round Light/status/24/fcitx-shuangpin-libpinyin.svg

<svg xmlns="http://www.w3.org/2000/svg" viewBox="0 0 24 24" width="24" height="24">
  <defs id="defs3051">
    <style type="text/css" id="current-color-scheme">.ColorScheme-Text {color:#fcfcfc;}</style>
  </defs>
  <g transform="translate(1,1)">
    <path style="fill:currentColor;fill-opacity:1;stroke:none" d="m 3,6 v 9.996375 C 3,15.996375 3,19 6,19 c 3,0 7,0 10,0 3,0 3,-3 3,-3 V 6 C 19,6 19,3 16,3 13,3 9,3 6,3 3,3 3,6 3,6 Z M 5,5 h 5.548828 l -0.05078,0.5488281 c 0,0 -0.328139,3.521106 -1.2246095,6.1289059 0.5826734,0.8731 1.1390045,1.775219 1.8378905,3.011719 l -0.86914,0.490235 c -0.5388845,-0.953401 -0.9847126,-1.6884 -1.4218755,-2.375 -1.3944413,3.1253 -3.3652344,4.488281 -3.3652344,4.488281 L 4.8984375,16.460938 c 0,0 1.9703908,-1.31395 3.2636719,-4.65625 C 7.3964558,10.698287 6.5268081,9.5832533 5.109375,7.8144531 L 5.890625,7.1875 C 7.0718949,8.6617002 7.8640436,9.679778 8.5585938,10.642578 9.1095504,8.7368779 9.3567404,6.6434001 9.4277344,6 H 5 Z m 6,0 h 6 v 0.5 c 0,2.1466003 -0.832862,4.968103 -1.707031,6.908203 -0.110964,0.2463 -0.241608,0.465959 -0.367188,0.693359 0.62377,1.083401 1.46019,2.113469 2.84375,3.230469 l -0.626953,0.779297 c -1.281085,-1.0343 -2.147062,-2.040853 -2.802734,-3.064453 -1.393199,1.9869 -3.103516,3.037109 -3.103516,3.037109 L 10.71875,16.228516 c 0,0 1.7803,-1.100778 3.068359,-3.142578 C 13.449417,12.437537 13.165672,11.77865 12.900391,11.09375 12.142306,9.1367498 11.691778,6.5916001 11.589844,6 H 11 Z m 1.607422,1 c 0.139266,0.7654001 0.568348,3.0333217 1.226562,4.732422 0.173508,0.4479 0.351003,0.86735 0.539063,1.28125 0.0025,-0.006 0.0053,-0.0056 0.0078,-0.01563 0.756947,-1.68 1.434346,-4.1449468 1.542969,-5.998047 z" class="ColorScheme-Text"/>
  </g>
</svg>

<svg xmlns="http://www.w3.org/2000/svg" viewBox="0 0 24 24" width="24" height="24">
  <defs id="defs3051">
    <style type="text/css" id="current-color-scheme">
      .ColorScheme-Text {
        color:#232629;
      }
      </style>
  </defs>
  <g transform="translate(1,1)">
    <path style="fill:currentColor;fill-opacity:1;stroke:none" d="M 3 3 L 3 19 L 19 19 L 19 3 L 3 3 z M 5 5 L 10.548828 5 L 10.498047 5.5488281 C 10.498047 5.5488281 10.169908 9.0699341 9.2734375 11.677734 C 9.8561109 12.550834 10.412442 13.452953 11.111328 14.689453 L 10.242188 15.179688 C 9.7033035 14.226287 9.2574754 13.491288 8.8203125 12.804688 C 7.4258712 15.929988 5.4550781 17.292969 5.4550781 17.292969 L 4.8984375 16.460938 C 4.8984375 16.460938 6.8688283 15.146988 8.1621094 11.804688 C 7.3964558 10.698287 6.5268081 9.5832533 5.109375 7.8144531 L 5.890625 7.1875 C 7.0718949 8.6617002 7.8640436 9.679778 8.5585938 10.642578 C 9.1095504 8.7368779 9.3567404 6.6434001 9.4277344 6 L 5 6 L 5 5 z M 11 5 L 17 5 L 17 5.5 C 17 7.6466003 16.167138 10.468103 15.292969 12.408203 C 15.182005 12.654503 15.051361 12.874162 14.925781 13.101562 C 15.549551 14.184963 16.385971 15.215031 17.769531 16.332031 L 17.142578 17.111328 C 15.861493 16.077028 14.995516 15.070475 14.339844 14.046875 C 12.946645 16.033775 11.236328 17.083984 11.236328 17.083984 L 10.71875 16.228516 C 10.71875 16.228516 12.49905 15.127738 13.787109 13.085938 C 13.449417 12.437537 13.165672 11.77865 12.900391 11.09375 C 12.142306 9.1367498 11.691778 6.5916001 11.589844 6 L 11 6 L 11 5 z M 12.607422 6 C 12.746688 6.7654001 13.17577 9.0333217 13.833984 10.732422 C 14.007492 11.180322 14.184987 11.599772 14.373047 12.013672 C 14.375547 12.007672 14.378359 12.008047 14.380859 11.998047 C 15.137806 10.318047 15.815205 7.8531002 15.923828 6 L 12.607422 6 z " class="ColorScheme-Text"/>
  </g>
</svg>
